X:38
T:Dawns y Pentref - The Village Dance
M:2/4
L:1/16
Q:290
C:Trad.
R:Processional
K:G
dc | B2G2 G2D2 | E4 D2G2 | F2G2 c2B2 | AGAB A2dc | B2G2 G2D2 |
E4 D2G2 | F2G2 BAGF | G6 :||: A2 | B4 A2d2 | B4 A2d2 |
cBAG F2G2 | AGFE D2F2 | B4 A2d2 | B4 A2d2 | cBAG BAGF | G6 :||
